!!! OTL: Huan/, Yang/, Bien^, Dan\ (An old shoulder pole)
!!! YEC: Copyright 2001,Chia-wei Lee
!! For Voice Only
**kern	**silbe
*clefG2	*LXhinhua
*G:	*ping-ying
*M2/4	*
=5	=5
8b	Huan/
16dd	Ge\
16b	Yang/
8dd	Bien^
16b	Dan\
16dd	Mo
=6	=6
8b	Ruan^
8dd	Liu-
8dd	Liu-
16b	Ia
16dd	Mo
=7	=7
4ee	Jie^
16ee	Ge-
16dd	Ia
16b	Ha-
16dd	Li^
=8	=8
q8dd	Ia
2b	|
=9	=9
8ee	Tiau-
16ee	Yi-
16ff	Tiau-
16ff	Bai/
16ee	|
8dd	Mi^
=10	=10
8ee	Xia\
8ff	Liu^
(16ff	Zhou-
16ee)	|
8dd	Wei\
=11	=11
8b	Jie^
8b	Ia
(16a	Jia^
16g)	|
8e	Ia
=12	=12
8a	Xia\
(16b	Liu^
16dd)	|
8b	Zhou-
(16a	Wei\
16g)	|
=13	=13
16a	Ge-
16g	A
16d	Ha-
16g	Li^
q8g	Ia
4e	|
=14	=14
8b	Jie^
8b	Ia
(16a	Jie^
16g)	|
8e	Ia
=15	=15
8a	Xia\
(16b	Liu^
16dd)	|
8b	Zhou-
(16a	Wei\
16g)	|
*M3/4	*
=16	=16
16a	Ge-
16g	Ia
16e	Ha-
16g	Li^
2e	Ia
*-	*-
